packages/components/Atoms/Icon/assets/img/rpl_icon_doc.svg

<svg width="21" height="20" viewBox="0 0 21 20" overflow="visible" xmlns="http://www.w3.org/2000/svg">
  <path fill-rule="evenodd" clip-rule="evenodd" d="M10 5V2.824L12.176 5H10ZM10.003 0H1C0.447 0 0 0.447 0 1V19C0 19.553 0.447 20 1 20H14C14.553 20 15 19.553 15 19V16H13V18H2V2H8V6C8 6.553 8.447 7 9 7H13V9H15V4.997L10.003 0Z"
    fill="inherit" />
  <path fill-rule="evenodd" clip-rule="evenodd" d="M9.97559 11.3984C9.86459 11.2304 9.69559 11.1184 9.38759 11.1184H8.84859V13.9194H9.38759C9.69559 13.9194 9.86459 13.8074 9.97559 13.6394C10.0746 13.5004 10.1096 13.3674 10.1096 12.5194C10.1096 11.6784 10.0746 11.5394 9.97559 11.3984ZM10.8166 14.5224C10.4736 14.8654 9.99059 15.0124 9.47159 15.0124H7.62259V10.0264H9.47159C9.99059 10.0264 10.4736 10.1724 10.8166 10.5164C11.3976 11.0974 11.3346 11.7354 11.3346 12.5194C11.3346 13.3034 11.3976 13.9414 10.8166 14.5224Z"
    fill="inherit" />
  <path fill-rule="evenodd" clip-rule="evenodd" d="M14.2666 11.2939C14.1756 11.1749 14.0006 11.0759 13.7766 11.0759C13.5526 11.0759 13.3766 11.1749 13.2866 11.2939C13.1736 11.4399 13.1046 11.6079 13.1046 12.5199C13.1046 13.4299 13.1736 13.5909 13.2866 13.7379C13.3766 13.8569 13.5526 13.9619 13.7766 13.9619C14.0006 13.9619 14.1756 13.8569 14.2666 13.7379C14.3786 13.5909 14.4496 13.4299 14.4496 12.5199C14.4496 11.6079 14.3786 11.4399 14.2666 11.2939ZM15.1696 14.4939C14.8066 14.8579 14.3856 15.0549 13.7766 15.0549C13.1666 15.0549 12.7466 14.8579 12.3826 14.4939C11.8576 13.9689 11.8786 13.2689 11.8786 12.5199C11.8786 11.7699 11.8576 11.0689 12.3826 10.5439C12.7466 10.1799 13.1666 9.98389 13.7766 9.98389C14.3856 9.98389 14.8066 10.1799 15.1696 10.5439C15.6956 11.0689 15.6746 11.7699 15.6746 12.5199C15.6746 13.2689 15.6956 13.9689 15.1696 14.4939Z"
    fill="inherit" />
  <path fill-rule="evenodd" clip-rule="evenodd" d="M18.1094 15.0546C17.5284 15.0546 17.0874 14.8586 16.7224 14.4936C16.1974 13.9686 16.2184 13.2686 16.2184 12.5196C16.2184 11.7696 16.1974 11.0696 16.7224 10.5436C17.0874 10.1796 17.5284 9.98459 18.1094 9.98459C19.0544 9.98459 19.8184 10.5086 20.0004 11.6086H18.7544C18.6764 11.3286 18.5224 11.0756 18.1164 11.0756C17.8924 11.0756 17.7244 11.1676 17.6324 11.2866C17.5214 11.4336 17.4444 11.6086 17.4444 12.5196C17.4444 13.4296 17.5214 13.6046 17.6324 13.7516C17.7244 13.8706 17.8924 13.9616 18.1164 13.9616C18.5224 13.9616 18.6764 13.7096 18.7544 13.4296H20.0004C19.8184 14.5296 19.0544 15.0546 18.1094 15.0546Z"
    fill="inherit" />
</svg>

<svg width="21" height="20" overflow="visible" xmlns="http://www.w3.org/2000/svg"><path fill-rule="evenodd" clip-rule="evenodd" d="M10 5V2.824L12.176 5H10zm.003-5H1a1 1 0 00-1 1v18a1 1 0 001 1h13a1 1 0 001-1v-3h-2v2H2V2h6v4a1 1 0 001 1h4v2h2V4.997L10.003 0z" fill="inherit"/><path fill-rule="evenodd" clip-rule="evenodd" d="M9.976 11.398c-.111-.168-.28-.28-.588-.28h-.54v2.801h.54c.308 0 .477-.112.588-.28.099-.139.134-.272.134-1.12 0-.84-.035-.98-.134-1.12zm.84 3.124c-.342.343-.825.49-1.344.49h-1.85v-4.986h1.85c.519 0 1.002.146 1.345.49.58.581.518 1.22.518 2.003 0 .784.063 1.422-.518 2.003zM14.267 11.294a.614.614 0 00-.49-.218c-.224 0-.4.099-.49.218-.113.146-.182.314-.182 1.226 0 .91.069 1.07.182 1.218.09.119.266.224.49.224a.617.617 0 00.49-.224c.112-.147.183-.308.183-1.218 0-.912-.071-1.08-.183-1.226zm.903 3.2c-.363.364-.784.56-1.393.56-.61 0-1.03-.196-1.394-.56-.525-.525-.504-1.225-.504-1.974 0-.75-.021-1.451.504-1.976.364-.364.784-.56 1.394-.56.609 0 1.03.196 1.393.56.526.525.505 1.226.505 1.976 0 .749.02 1.449-.505 1.974zM18.11 15.055c-.582 0-1.023-.196-1.388-.561-.525-.525-.504-1.225-.504-1.974 0-.75-.02-1.45.504-1.976.365-.364.806-.56 1.387-.56.945 0 1.71.525 1.891 1.625h-1.246c-.078-.28-.232-.533-.638-.533-.224 0-.392.092-.484.21-.11.148-.188.323-.188 1.234 0 .91.077 1.085.188 1.232.092.119.26.21.484.21.406 0 .56-.252.638-.532H20c-.182 1.1-.946 1.625-1.89 1.625z" fill="inherit"/></svg>
